X:400
T:Honest John
R:jig
M:6/8
L:1/8
K:G
d|b3 a3|gfg B3|cBc ABc|ed^c d3|
b3 a3|gfg B3|cBc DEF|G3 G2:|
K:D
E|DFA DFA|DFA a3|gfg ABc|ecB AFD|
DFA DFA|DFA a3|gfg ABc|d3 d2:|
